X:15087
T:Scottish 
Z:abc transcription Simon Wascher
N:please mail errors to: simon.wascher@chello.at
M:2/4
L:1/16
K:Dm
GDEF GFGA|BABc d2d2|BdcB AcBA|B2G2A4|
GDEF GFGA|BABc d2d2|BdcB AcBA|G2A^FG4:|
|:d2de c2cd|B2BcA4|BAGF GAGA|BABc dABc|
d2de c2cd|B2BcA4|BAGF GAGA|B2A2G4:|
